X: 1
T: You Married My Daughter But Yet You Didn't
R: reel
Z: John Chambers <jc:trillian.mit.edu>
M: C|
L: 1/8
K: G
|: B2d2 | "G"g4 agfa | g4 B2d2 | "D7"f4 gfeg | f4 B2d2 | "G"g4 agfa |
| g4 B2d2 | "D7"fgfe dBA2 | "G"G4 :: BcdB | "G"G2BG- GBG2 | "D7"d2c2 ABcA |
| F2AF- FAF2 | "G"e2d2 BcdB | "G"G2BG- GBG2 | "D7"d2c2 ABcA | F2fe dBA2 | "G"G4 :|
